X: 337
T:Quant je vous voye
N: Derived from Jos2732-Quant_je_vous_voye.krn
C: Josquin des Prez
%%abc-version 2.0
%%abcx-abcm2ps-target-version 5.9.1 (29 Sep 2008)
%%abc-creator hum2abc beta
%%abcx-conversion-date 2019/02/12 16:15:54
%%abc-edited-by Jesse Rodin
%%abc-edited-by Jesse Rodin; Victoria Chang 2011/07/26/
%%abcx-initial-encoding-date 2011/07/26/
%%humdrum-veritas 373707534
%%humdrum-veritas-data 1145837148
%%linebreak <none>
%%barnumbers 0
L: 1/4
M: 2/1
Q: 1/2=120
V: 1 clef=treble
V: 2 clef=treble-8
V: 3 clef=bass
K: C
[V:1] z8 | 
[V:2] z8 | 
[V:3] D4D2D2 | 
[V:1] d4d2d2 | 
[V:2] z4g4 | 
[V:3] B,3G,G,2G,2 | 
[V:1] B3GG4 | 
[V:2] g2g2e3c | 
[V:3] G,2G,2C3D | 
[V:1] z2G2G2G2 | 
[V:2] c4z2c2 | 
[V:3] EFE3DCB, | 
[V:1] c4z2A2 | 
[V:2] c2c2f4 | 
[V:3] A,G,F,E,D,2D2- | 
[V:1] A2A2d3c | 
[V:2] z2f2f3e | 
[V:3] DC/B,/A,2_B,2_B,,C, | 
[V:1] B2A3GG2- | 
[V:2] d2c2B2c2 | 
[V:3] D,E,F,2G,2C,2 | 
[V:1] G2^F2G4 | 
[V:2] A4G4- | 
[V:3] D,4z2D2 | 
[V:1] z2G2G2G2 | 
[V:2] G4z2c2 | 
[V:3] D2D2E2E,2 | 
[V:1] A4z2A2 | 
[V:2] c2c2d4 | 
[V:3] F,2F,2D,2D,2 | 
[V:1] A2A2B4 | 
[V:2] z2d2d2d2 | 
[V:3] D,2D,2G,4 | 
[V:1] G3ABcd2- | 
[V:2] e4d2f2 | 
[V:3] C,D,E,F,G,2F,2 | 
[V:1] dcc4B2 | 
[V:2] e2dcd4 | 
[V:3] C3B,/A,/G,4 | 
[V:1] c4z2c2 | 
[V:2] c4z4 | 
[V:3] z2C2C3B, | 
[V:1] c3BA4 | 
[V:2] z2f2f3e | 
[V:3] A,G,F,2D3C | 
[V:1] z2d2d3c | 
[V:2] d4z2g2 | 
[V:3] B,A,G,2z2G,2 | 
[V:1] B4z2e2- | 
[V:2] g3fedc2 | 
[V:3] G,4A,4 | 
[V:1] edd4^c2 | 
[V:2] d4e4 | 
[V:3] B,4A,4 | 
[V:1] d4z4 | 
[V:2] d4z4 | 
[V:3] z2D2D2D2 | 
[V:1] d4d2d2 | 
[V:2] z4g4 | 
[V:3] B,3G,G,2G,2 | 
[V:1] B3GG4 | 
[V:2] g2g2e3c | 
[V:3] G,2G,2C4 | 
[V:1] z2G2A2B2 | 
[V:2] c4c2d2 | 
[V:3] z2C2A,2G,2 | 
[V:1] c2z2A2B2 | 
[V:2] e2f2z2d2 | 
[V:3] C2z2F,2G,2 | 
[V:1] c2d4d2 | 
[V:2] e2f2g4 | 
[V:3] E,2D,2z2G,2 | 
[V:1] B2c2A2z2 | 
[V:2] g2e2f2d2 | 
[V:3] G,2A,2D,2D2 | 
[V:1] d2d2B2G2 | 
[V:2] z2g2g2e2 | 
[V:3] D2B,2G,2C2- | 
[V:1] z2c2A2B2 | 
[V:2] c2z2f2d2 | 
[V:3] C2F,4G,2 | 
[V:1] G2z2c2A2 | 
[V:2] e2c2z2f2 | 
[V:3] C,2C4F,2 | 
[V:1] B2G2z2c2 | 
[V:2] d2e2c2e2 | 
[V:3] G,2C,2z2C,2 | 
[V:1] B2A3GG2- | 
[V:2] d3cB2G2 | 
[V:3] D,4E,4 | 
[V:1] G2^F2G4 | 
[V:2] A4G4 | 
[V:3] D,4z2D2 | 
[V:1] z4d4 | 
[V:2] z8 | 
[V:3] D2D2B,3G, | 
[V:1] d2d2B3G | 
[V:2] g4g2g2 | 
[V:3] G,2G,2G,2G,2 | 
[V:1] G4z2G2 | 
[V:2] e3cc4 | 
[V:3] C3DEFE2- | 
[V:1] G2G2c4 | 
[V:2] z2c2c2c2 | 
[V:3] EDCB,A,G,F,E, | 
[V:1] z2A2A2A2 | 
[V:2] f4z2f2 | 
[V:3] D,2D3C/B,/A,2 | 
[V:1] d3cB2A2- | 
[V:2] f3ed2c2 | 
[V:3] _B,2_B,,C,D,E,F,2 | 
[V:1] AGG4^F2 | 
[V:2] B2c2A4 | 
[V:3] G,2C,2D,4 | 
[V:1] G8 |]  
[V:2] G8 |]  
[V:3] G,8 |]  



